X:22
T:My Dearie O: with variations. CAM2.[23]
T:Lea Riggs,aka. CAM2.[23]
T:Lollipop Man,aka. CAM2.[23], The
B:Anon MS#2, early 19thC, Northumbria, Cocks Coll.
Z:Village Music Project 2016 Steve Mansfield
M:C|
L:1/8
Q:2/4=50
N:* d/a/d'/c'/ in Mss
N:*2 f>e in Mss
N:*3 b/>a/ in Mss
N:*4 b/>a/ in Mss
K:D
f/>e/ | {de}fAAB d>ed>f | {def}e>f g/f/e/d/ {de}fBB f/>e/ | \
{fe}fAAB d>ed d'/c'/ | b>a a/c'/d'/a/ fdd f/>e/ |
{de}fAAB d>e d/f/a/f/ | e/g/f/a/ g/f/e/d/ {de}fBB f/>e/ | \
fAAB d>e d/a/d'/c'/ | b>a g/f/e/a/ fdd a |
b/>a/b/c'/ d'f g/>f/g/a/ bd | e/d/<e/f/ g/f/e/d/ {de}fAA f/>e/ | \
{de}fAAB "*" dad'c' | b>g b/c'/d'/a/ fdd ||
f/e/ | d/.A/.F/.D/. d/.A/.f/.A/. e/.A/.f/.A/. g/f/e/d/ | \
{de}gBB f/e/ d/A/F/D/ a/d/b/d/ | d'/c'//b//a/g/ f/>a/e/>a/ fdd a/b//c'// |
d'/(a/f/a/) b/(a/f/a/) d'/(a/f/a/) b/a/f/a/ | d'/c'/b/a/ g/f/e/d/ {de}fBB "*2" f/>e/ | \
d/(A/F/A/) B/(A/F/A/) d/(A/F/A/) B/(A/F/A/) | d'/c'//b//a/g/ f/>g/f/g/ fdd ||
f/>e/ | df/>d/ Ad/>A/ FA/>F/ Df | Te/d/e/f/ g/f/e/d/ {de}fBB f/>e/ | \
d(3a/f/d/ A(3f/d/B/ F(3d/A/F/ Dd'/c'/ | "*3"b>a b/c'/d'/a/ fdd a |
bd'/b/ ad'/a/ ge'/g/ fd'/f/ | e/>g/f/>a/ g/>e/f/>d/ {de}fBB f/>e/ | \
d(3a/f/d/ A(3f/d/B/ F(3d/A/F/ Dd'/c'/ | "*4" b>a b/c'/d'/a/ fdd |]

